Icons/org_wikipedia.svg

<svg viewBox="0 0 48 48" xmlns:xlink="http://www.w3.org/1999/xlink">
 <defs>
  <linearGradient id="0">
   <stop stop-opacity="0"/>
   <stop offset="1"/>
  </linearGradient>
  <linearGradient xlink:href="#0" id="1" gradientUnits="userSpaceOnUse" gradientTransform="translate(4e-7,-48)" y1="47" x2="0" y2="1"/>
  <clipPath id="2">
   <g transform="translate(0,-1004.3622)">
    <rect rx="4" y="1005.36" x="1" height="46" width="46" fill="#1890d0"/>
   </g>
  </clipPath>
  <clipPath id="3">
   <g transform="translate(0,-1004.3622)">
    <rect rx="4" y="1005.36" x="1" height="46" width="46" fill="#1890d0"/>
   </g>
  </clipPath>
 </defs>
 <g>
  <g transform="translate(0,-1004.3622)">
   <path d="m 5,1006.3622 c -2.216,0 -4,1.784 -4,4 l 0,37.25 c 0,2.216 1.784,4 4,4 l 38,0 c 2.216,0 4,-1.784 4,-4 l 0,-37.25 c 0,-2.216 -1.784,-4 -4,-4 l -38,0 z m -4,41.5 0,0.5 c 0,2.216 1.784,4 4,4 l 38,0 c 2.216,0 4,-1.784 4,-4 l 0,-0.5 c 0,2.216 -1.784,4 -4,4 l -38,0 c -2.216,0 -4,-1.784 -4,-4 z" opacity="0.02"/>
   <path d="m 1,1047.6122 0,0.25 c 0,2.216 1.784,4 4,4 l 38,0 c 2.216,0 4,-1.784 4,-4 l 0,-0.25 c 0,2.216 -1.784,4 -4,4 l -38,0 c -2.216,0 -4,-1.784 -4,-4 z" opacity="0.05"/>
   <rect width="46" height="46" x="1" y="1005.61" rx="4" opacity="0.1"/>
  </g>
 </g>
 <g>
  <g transform="translate(0,-1004.3622)">
   <rect rx="4" y="1005.36" x="1" height="46" width="46" fill="#ebebeb"/>
  </g>
 </g>
 <g>
  <rect transform="scale(1,-1)" width="46" height="46" x="1" y="-46.998" rx="4" opacity="0.1" fill="url(#1)"/>
 </g>
 <g>
  <g clip-path="url(#2)">
   <g opacity="0.1">
    <g>
     <path d="M 20.921875 19.726562 C 20.921875 19.726562 20.550781 18.957031 20.421875 18.703125 C 19.574219 16.996094 19.59375 16.902344 18.734375 16.789062 C 18.496094 16.757812 18.371094 16.726562 18.371094 16.605469 L 18.371094 16.066406 L 18.445312 16.011719 C 19.992188 16.011719 23.4375 16.011719 23.4375 16.011719 L 23.566406 16.054688 L 23.566406 16.59375 C 23.566406 16.714844 23.480469 16.777344 23.304688 16.777344 L 22.945312 16.832031 C 22.03125 16.902344 22.179688 17.285156 22.785156 18.511719 L 28.554688 30.503906 L 28.753906 30.558594 L 33.875 18.210938 C 34.050781 17.714844 34.023438 17.359375 33.796875 17.152344 C 33.566406 16.949219 33.40625 16.832031 32.8125 16.804688 L 32.332031 16.78125 C 32.273438 16.78125 32.214844 16.761719 32.160156 16.71875 C 32.109375 16.683594 32.082031 16.632812 32.082031 16.570312 L 32.082031 16.054688 L 32.15625 16.003906 C 33.597656 16.003906 37.941406 16.003906 37.941406 16.003906 L 38 16.054688 L 38 16.570312 C 38 16.710938 37.921875 16.78125 37.765625 16.78125 C 37.007812 16.8125 36.445312 16.980469 36.082031 17.28125 C 35.71875 17.582031 35.433594 17.996094 35.230469 18.53125 C 35.230469 18.53125 30.519531 29.484375 28.90625 33.125 C 28.292969 34.316406 27.683594 34.207031 27.152344 33.089844 C 26.023438 30.734375 22.851562 23.578125 22.851562 23.578125 L 20.921875 19.730469 Z M 20.921875 19.726562 "/>
     <path d="M 30.164062 16.003906 C 30.164062 16.003906 26.910156 15.992188 25.460938 16.003906 L 25.390625 16.058594 L 25.390625 16.570312 C 25.390625 16.632812 25.414062 16.683594 25.46875 16.71875 C 25.523438 16.761719 25.578125 16.78125 25.636719 16.78125 L 25.867188 16.808594 C 26.460938 16.832031 26.734375 16.992188 26.816406 17.089844 C 26.957031 17.265625 27.027344 17.453125 26.683594 18.214844 L 20.605469 30.527344 L 20.449219 30.484375 C 20.449219 30.484375 16.09375 21.160156 14.835938 18.042969 C 14.703125 17.71875 14.644531 17.480469 14.644531 17.332031 C 14.644531 17.015625 14.925781 16.84375 15.488281 16.820312 L 16.144531 16.792969 C 16.320312 16.792969 16.40625 16.722656 16.40625 16.582031 L 16.40625 16.070312 L 16.347656 16.019531 C 16.347656 16.019531 11.136719 16.011719 10.058594 16.019531 L 10 16.070312 L 10 16.609375 C 10 16.707031 10.121094 16.765625 10.363281 16.792969 C 11.023438 16.828125 11.460938 16.9375 11.667969 17.113281 C 11.878906 17.292969 12.097656 17.75 12.390625 18.460938 C 13.972656 22.324219 17.335938 29.214844 18.972656 33.136719 C 19.445312 34.210938 20.035156 34.375 20.753906 33.105469 C 22 30.757812 25.378906 23.589844 25.378906 23.589844 L 28.039062 18.535156 C 28.347656 18 28.648438 17.523438 28.800781 17.300781 C 29.078125 16.894531 29.230469 16.820312 29.992188 16.785156 C 30.144531 16.785156 30.222656 16.714844 30.222656 16.574219 L 30.222656 16.058594 Z M 30.164062 16.003906 "/>
    </g>
   </g>
  </g>
 </g>
 <g>
  <g clip-path="url(#3)">
   <g transform="translate(0,-1)">
    <g>
     <path d="M 20.921875 19.726562 C 20.921875 19.726562 20.550781 18.957031 20.421875 18.703125 C 19.574219 16.996094 19.59375 16.902344 18.734375 16.789062 C 18.496094 16.757812 18.371094 16.726562 18.371094 16.605469 L 18.371094 16.066406 L 18.445312 16.011719 C 19.992188 16.011719 23.4375 16.011719 23.4375 16.011719 L 23.566406 16.054688 L 23.566406 16.59375 C 23.566406 16.714844 23.480469 16.777344 23.304688 16.777344 L 22.945312 16.832031 C 22.03125 16.902344 22.179688 17.285156 22.785156 18.511719 L 28.554688 30.503906 L 28.753906 30.558594 L 33.875 18.210938 C 34.050781 17.714844 34.023438 17.359375 33.796875 17.152344 C 33.566406 16.949219 33.40625 16.832031 32.8125 16.804688 L 32.332031 16.78125 C 32.273438 16.78125 32.214844 16.761719 32.160156 16.71875 C 32.109375 16.683594 32.082031 16.632812 32.082031 16.570312 L 32.082031 16.054688 L 32.15625 16.003906 C 33.597656 16.003906 37.941406 16.003906 37.941406 16.003906 L 38 16.054688 L 38 16.570312 C 38 16.710938 37.921875 16.78125 37.765625 16.78125 C 37.007812 16.8125 36.445312 16.980469 36.082031 17.28125 C 35.71875 17.582031 35.433594 17.996094 35.230469 18.53125 C 35.230469 18.53125 30.519531 29.484375 28.90625 33.125 C 28.292969 34.316406 27.683594 34.207031 27.152344 33.089844 C 26.023438 30.734375 22.851562 23.578125 22.851562 23.578125 L 20.921875 19.730469 Z M 20.921875 19.726562 " fill="#2d2d2d"/>
     <path d="M 30.164062 16.003906 C 30.164062 16.003906 26.910156 15.992188 25.460938 16.003906 L 25.390625 16.058594 L 25.390625 16.570312 C 25.390625 16.632812 25.414062 16.683594 25.46875 16.71875 C 25.523438 16.761719 25.578125 16.78125 25.636719 16.78125 L 25.867188 16.808594 C 26.460938 16.832031 26.734375 16.992188 26.816406 17.089844 C 26.957031 17.265625 27.027344 17.453125 26.683594 18.214844 L 20.605469 30.527344 L 20.449219 30.484375 C 20.449219 30.484375 16.09375 21.160156 14.835938 18.042969 C 14.703125 17.71875 14.644531 17.480469 14.644531 17.332031 C 14.644531 17.015625 14.925781 16.84375 15.488281 16.820312 L 16.144531 16.792969 C 16.320312 16.792969 16.40625 16.722656 16.40625 16.582031 L 16.40625 16.070312 L 16.347656 16.019531 C 16.347656 16.019531 11.136719 16.011719 10.058594 16.019531 L 10 16.070312 L 10 16.609375 C 10 16.707031 10.121094 16.765625 10.363281 16.792969 C 11.023438 16.828125 11.460938 16.9375 11.667969 17.113281 C 11.878906 17.292969 12.097656 17.75 12.390625 18.460938 C 13.972656 22.324219 17.335938 29.214844 18.972656 33.136719 C 19.445312 34.210938 20.035156 34.375 20.753906 33.105469 C 22 30.757812 25.378906 23.589844 25.378906 23.589844 L 28.039062 18.535156 C 28.347656 18 28.648438 17.523438 28.800781 17.300781 C 29.078125 16.894531 29.230469 16.820312 29.992188 16.785156 C 30.144531 16.785156 30.222656 16.714844 30.222656 16.574219 L 30.222656 16.058594 Z M 30.164062 16.003906 " fill="#2d2d2d"/>
    </g>
   </g>
  </g>
 </g>
 <g>
  <g transform="translate(0,-1004.3622)">
   <path d="m 1,1043.3622 0,4 c 0,2.216 1.784,4 4,4 l 38,0 c 2.216,0 4,-1.784 4,-4 l 0,-4 c 0,2.216 -1.784,4 -4,4 l -38,0 c -2.216,0 -4,-1.784 -4,-4 z" opacity="0.1"/>
  </g>
 </g>
</svg>

<svg viewBox="0 0 48 48"><defs><linearGradient id="linearGradient3764" x1="1" x2="47" gradientUnits="userSpaceOnUse" gradientTransform="translate(-48.000001,0.00221467)"><stop stop-color="#e1e1e1" stop-opacity="1"/><stop offset="1" stop-color="#ebebeb" stop-opacity="1"/></linearGradient><clipPath id="clipPath-384659858"><g transform="translate(0,-1004.3622)"><rect rx="4" y="1005.36" x="1" height="46" width="46" fill="#1890d0"/></g></clipPath><clipPath id="clipPath-398418868"><g transform="translate(0,-1004.3622)"><rect rx="4" y="1005.36" x="1" height="46" width="46" fill="#1890d0"/></g></clipPath></defs><g><path d="m 1 43 l 0 0.25 c 0 2.216 1.784 4 4 4 l 38 0 c 2.216 0 4 -1.784 4 -4 l 0 -0.25 c 0 2.216 -1.784 4 -4 4 l -38 0 c -2.216 0 -4 -1.784 -4 -4 z m 0 0.5 l 0 0.5 c 0 2.216 1.784 4 4 4 l 38 0 c 2.216 0 4 -1.784 4 -4 l 0 -0.5 c 0 2.216 -1.784 4 -4 4 l -38 0 c -2.216 0 -4 -1.784 -4 -4 z" opacity="0.02"/><path d="m 1 43.25 l 0 0.25 c 0 2.216 1.784 4 4 4 l 38 0 c 2.216 0 4 -1.784 4 -4 l 0 -0.25 c 0 2.216 -1.784 4 -4 4 l -38 0 c -2.216 0 -4 -1.784 -4 -4 z" opacity="0.05"/><path d="m 1 43 l 0 0.25 c 0 2.216 1.784 4 4 4 l 38 0 c 2.216 0 4 -1.784 4 -4 l 0 -0.25 c 0 2.216 -1.784 4 -4 4 l -38 0 c -2.216 0 -4 -1.784 -4 -4 z" opacity="0.1"/></g><g><rect width="46" height="46" x="-47" y="1" rx="4" transform="matrix(0,-1,1,0,0,0)" fill="url(#linearGradient3764)" fill-opacity="1"/></g><g><g clip-path="url(#clipPath-384659858)"><g opacity="0.1"><!-- color: #ebebeb --><g><path d="m 20.922 19.727 c 0 0 -0.371 -0.77 -0.5 -1.023 c -0.848 -1.707 -0.828 -1.801 -1.688 -1.914 c -0.238 -0.031 -0.363 -0.063 -0.363 -0.184 l 0 -0.539 l 0.074 -0.055 c 1.547 0 4.992 0 4.992 0 l 0.129 0.043 l 0 0.539 c 0 0.121 -0.086 0.184 -0.262 0.184 l -0.359 0.055 c -0.914 0.07 -0.766 0.453 -0.16 1.68 l 5.77 11.992 l 0.199 0.055 l 5.121 -12.348 c 0.176 -0.496 0.148 -0.852 -0.078 -1.059 c -0.23 -0.203 -0.391 -0.32 -0.984 -0.348 l -0.48 -0.023 c -0.059 0 -0.117 -0.02 -0.172 -0.063 c -0.051 -0.035 -0.078 -0.086 -0.078 -0.148 l 0 -0.516 l 0.074 -0.051 c 1.441 0 5.785 0 5.785 0 l 0.059 0.051 l 0 0.516 c 0 0.141 -0.078 0.211 -0.234 0.211 c -0.758 0.031 -1.32 0.199 -1.684 0.5 c -0.363 0.301 -0.648 0.715 -0.852 1.25 c 0 0 -4.711 10.953 -6.324 14.594 c -0.613 1.191 -1.223 1.082 -1.754 -0.035 c -1.129 -2.355 -4.301 -9.512 -4.301 -9.512 l -1.93 -3.848 m 0 -0.004" fill="#000"/><path d="m 30.16 16 c 0 0 -3.254 -0.012 -4.703 0 l -0.07 0.055 l 0 0.512 c 0 0.063 0.023 0.113 0.078 0.148 c 0.055 0.043 0.109 0.063 0.168 0.063 l 0.23 0.027 c 0.594 0.023 0.867 0.184 0.949 0.281 c 0.141 0.176 0.211 0.363 -0.133 1.125 l -6.078 12.313 l -0.156 -0.043 c 0 0 -4.355 -9.324 -5.613 -12.441 c -0.133 -0.324 -0.191 -0.563 -0.191 -0.711 c 0 -0.316 0.281 -0.488 0.844 -0.512 l 0.656 -0.027 c 0.176 0 0.262 -0.07 0.262 -0.211 l 0 -0.512 l -0.059 -0.051 c 0 0 -5.211 -0.008 -6.289 0 l -0.059 0.051 l 0 0.539 c 0 0.098 0.121 0.156 0.363 0.184 c 0.66 0.035 1.098 0.145 1.305 0.32 c 0.211 0.18 0.43 0.637 0.723 1.348 c 1.582 3.863 4.945 10.754 6.582 14.676 c 0.473 1.074 1.063 1.238 1.781 -0.031 c 1.246 -2.348 4.625 -9.516 4.625 -9.516 l 2.66 -5.05 c 0.309 -0.535 0.609 -1.012 0.762 -1.234 c 0.277 -0.406 0.43 -0.48 1.191 -0.516 c 0.152 0 0.23 -0.07 0.23 -0.211 l 0 -0.516 m -0.059 -0.055" fill="#000"/></g></g></g></g><g><g clip-path="url(#clipPath-398418868)"><g transform="translate(0,-1)"><!-- color: #ebebeb --><g><path d="m 20.922 19.727 c 0 0 -0.371 -0.77 -0.5 -1.023 c -0.848 -1.707 -0.828 -1.801 -1.688 -1.914 c -0.238 -0.031 -0.363 -0.063 -0.363 -0.184 l 0 -0.539 l 0.074 -0.055 c 1.547 0 4.992 0 4.992 0 l 0.129 0.043 l 0 0.539 c 0 0.121 -0.086 0.184 -0.262 0.184 l -0.359 0.055 c -0.914 0.07 -0.766 0.453 -0.16 1.68 l 5.77 11.992 l 0.199 0.055 l 5.121 -12.348 c 0.176 -0.496 0.148 -0.852 -0.078 -1.059 c -0.23 -0.203 -0.391 -0.32 -0.984 -0.348 l -0.48 -0.023 c -0.059 0 -0.117 -0.02 -0.172 -0.063 c -0.051 -0.035 -0.078 -0.086 -0.078 -0.148 l 0 -0.516 l 0.074 -0.051 c 1.441 0 5.785 0 5.785 0 l 0.059 0.051 l 0 0.516 c 0 0.141 -0.078 0.211 -0.234 0.211 c -0.758 0.031 -1.32 0.199 -1.684 0.5 c -0.363 0.301 -0.648 0.715 -0.852 1.25 c 0 0 -4.711 10.953 -6.324 14.594 c -0.613 1.191 -1.223 1.082 -1.754 -0.035 c -1.129 -2.355 -4.301 -9.512 -4.301 -9.512 l -1.93 -3.848 m 0 -0.004" fill="#2d2d2d"/><path d="m 30.16 16 c 0 0 -3.254 -0.012 -4.703 0 l -0.07 0.055 l 0 0.512 c 0 0.063 0.023 0.113 0.078 0.148 c 0.055 0.043 0.109 0.063 0.168 0.063 l 0.23 0.027 c 0.594 0.023 0.867 0.184 0.949 0.281 c 0.141 0.176 0.211 0.363 -0.133 1.125 l -6.078 12.313 l -0.156 -0.043 c 0 0 -4.355 -9.324 -5.613 -12.441 c -0.133 -0.324 -0.191 -0.563 -0.191 -0.711 c 0 -0.316 0.281 -0.488 0.844 -0.512 l 0.656 -0.027 c 0.176 0 0.262 -0.07 0.262 -0.211 l 0 -0.512 l -0.059 -0.051 c 0 0 -5.211 -0.008 -6.289 0 l -0.059 0.051 l 0 0.539 c 0 0.098 0.121 0.156 0.363 0.184 c 0.66 0.035 1.098 0.145 1.305 0.32 c 0.211 0.18 0.43 0.637 0.723 1.348 c 1.582 3.863 4.945 10.754 6.582 14.676 c 0.473 1.074 1.063 1.238 1.781 -0.031 c 1.246 -2.348 4.625 -9.516 4.625 -9.516 l 2.66 -5.05 c 0.309 -0.535 0.609 -1.012 0.762 -1.234 c 0.277 -0.406 0.43 -0.48 1.191 -0.516 c 0.152 0 0.23 -0.07 0.23 -0.211 l 0 -0.516 m -0.059 -0.055" fill="#2d2d2d"/></g></g></g></g><g><g transform="translate(0,-1004.3622)"><path d="m 1 1043.36 0 4 c 0 2.216 1.784 4 4 4 l 38 0 c 2.216 0 4 -1.784 4 -4 l 0 -4 c 0 2.216 -1.784 4 -4 4 l -38 0 c -2.216 0 -4 -1.784 -4 -4 z" opacity="0.1"/></g></g></svg>
